X: 9989
T: Devil's Polska, The
R: waltz
M: 3/4
K: Edorian
[M:9/8]|:E2e- ed2 B2d|cBA- AB2 G2F|E2G- GE2 FE^D|E2F -FG2 AB2|
E2e- ed2 B2d|cBA- AB2 G2F|E2G- GE2 FE^D|E2E -E6:|
|:E2G- GE2 F2^D|E2G- GE2 F2^D|E2G -GE2 FE^D|E2F -FG2 AB2|
E2G- GE2 F2^D|E2G- GE2 F2^D|E2G -GE2 FE^D|E2E- E6:|

